X:1
T:James Gibb editions
T:Las je sçay bien - Arcadelt
T:#
%%score [ 1 2 3 4 ]
L:1/8
Q:1/4=120
M:4/4
K:F
V:1 treble nm="Alto" snm="A"
V:2 treble-8 nm="Tenor I" snm="T I"
V:3 treble-8 nm="Tenor II" snm="T II"
V:4 bass nm="Bass" snm="B"
V:1
"^Las je sçay bien""^Jacques Arcadelt\n(1505-68)" C4 C2 C2 | D2 D4 F2- | F2 F2 E2 (C2 | D2 E2 F4) | %4
w: Las je sçay|bien que je|* fais grande of-|fen\- * *|
w: Il m'en prent|mal, aus- si|* a- vois- je||
 E2 G2 G2 G2 | A6 G2 |[M:4/4] F2 E2 D2 D2 | C8 :| C2 F2 F2 F2 | (FEFG A2) A2 | B2 B2 A2 (B2- | %11
w: se, Quant je vou-|lu con-|tre~a- mour te- nir|fort,||||
w: tort, De vou- loir|faire a|ung dieu ré- sis-|tan-|ce, Du quel cha-|scun * * * * re-|doub- te la puis\-|
 BA) (G3 ^F/E/ F2) | G4 G4 | B4 B4 | A2 A2 (A3 G | F2) E2 F4 | E4 C4- | C4 z2 C2 | C6 C2 | D6 D2 | %20
w: |ce, Tant|feist d'ef-|fort qui print *|* d'as- sault|mon cueur,|* Et|meist le|feu de-|
w: * * san\- * * *|||||||||
 E3 F G2 (A2 | AGFE F4) | (E3 F G2 A2 | AG c4 =B2) | c4 z2 C2 | F2 G2 A3 G | F2 E2 F2 (A2 | %27
w: dans à grand oul\-||tran\- * * *||ce, En|lieu con- quis ain-|sy faict le vain\-|
w: |||||||
 G2 F4 E2) | F4 z2 C2 | F2 G2 A3 G | F2 E2 F2 (A2 | G2 F4 E2) | F8- | F8 | F8 | F8 |] %36
w: |cueur, En|lieu con- quis ain-|sy faict le vain\-||cueur.||||
w: |||||||||
V:2
 A4 G2 G2 | B2 B2 A2 d2 | c2 (F2 G2 A2- | AG c4 =B2) | c2 e2 e2 e2 | f6 e2 | %6
w: Las je sçay|bien que je fais|grande of- fen\- *||se, Quant je vou-|lu con-|
w: Il m'en prent|mal, aus- si a-|vois- je * *||tort, De vou- loir|faire a|
[M:4/4][K:treble-8] d2 c2 B4- | B2 A2 G4 :| A2 c2 c2 c2 | d4 c2 (f2- | f2 e2 f2) f2 | B2 c2 d4 | %12
w: tre~a- mour te\-|* nir fort,|||||
w: ung dieu ré\-|* sis- tan-|ce, Du quel cha-|scun re- doub\-|* * * te|la puis- san-|
 (!courtesy!_B3 c d4) | z2 d2 d2 d2 | f4 z2 c2 | d2 G2 d2 d2 | (c3 B/A/ G2 A2- | A2 GF G4 | %18
w: ce, * *|Tant feist d'ef-|fort qui|print d'as- sault mon|cueur, * * * *||
w: ||||||
 A2 A2 A2 A2 | B2 B2 B2 B2 | (c3 B/A/ G2) FG | AB c4 =B2) | c3 (d e2 f2- | f2 e2 d4) | c4 c4 | %25
w: * Et meist le|feu de- dans à|grand * * * oul\- *||tran\- * * *||ce, En|
w: |||||||
 d2 e2 f3 e | d2 c2 B2 (f2 | d2 c2 d2 c2) | A2 F2 B2 c2 | d2 B2 d2 c2 | d2 (c2 B2 f2 | %31
w: lieu con- quis ain-|sy faict le vain\-||cueur, En lieu con-|quis ain- sy faict|le vain\- * *|
w: ||||||
 d2 c2 d2 c2) | A2 F2 B2 c2 | d2 B2 B2 A2 | B4 d4 | c8 |] %36
w: |cueur, En lieu con-|quis ain- sy faict|le vain-|cueur.|
w: |||||
V:3
 F4 E2 E2 | F2 G2 (F3 G | A2) B2 (c3 B | A2 G2) F4 | G2 c2 c2 c2 | c6 c2 | %6
w: Las je sçay|bien que je *|* fais grande *|* of- fen-|se, Quant je vou-|lu con-|
w: Il m'en prent|mal, aus- si *|* a- vois\- *|* * je|tort, De vou- loir|faire a|
[M:4/4][K:treble-8] A3 G F2 (G2- | GF) (F4 E2) :| F2 A2 A2 A2 | B2 A4 d2- | d2 B2 c2 d2 | (G4 A4) | %12
w: tre~a- mour te- nir|* * fort, *|||||
w: ung dieu ré- sis\-|* * tan\- *|ce, Du quel cha-|scun re- doub\-|* te la puis-|san\- *|
 G4 z2 G2- | G2 B4 B2 | c2 d2 c2 A2 | B2 c2 A2 A2 | A2 G2 E4 | F4 C4 | z2 F2 F2 F2 | F2 F2 G4 | %20
w: ce, Tant|* feist d'ef-|fort qui print d'as-|sault mon cueur, qui|print d'as- sault|mon cueur,|Et meist le|feu de- dans|
w: ||||||||
 G2 (c3 BAG | F8) | G4 (C2 F2 | A2) G2 z4 | z2 F2 A4 | A2 c2 z2 F2 | B2 c2 d3 c | B2 A2 B2 (G2- | %28
w: à grand * * *||oul- tran\- *|* ce,|En lieu|con- quis, En|lieu con- quis am-|sy faict le vain\-|
w: ||||||||
 F2 A2 G2 F2- | F2 E2) F2 F2 | B2 c2 d3 c | B2 A2 B2 G2 | F2 A2 d2 c2 | B2 d2 d2 c2 | d4 B4 | A8 |] %36
w: |* * cueur, En|lieu con- quis ain-|sy faict le vain-|cueur, En lieu con-|quis ain- sy faict|le vain-|cueur.|
w: ||||||||
V:4
 F,,4 C,2 C,2 | B,,2 G,,2 (D,3 E, | F,2) D,2 E,2 (F,2- | F,2 E,2 D,4) | C,2 C,2 C,2 C,2 | F,6 C,2 | %6
w: Las je sçay|bien que je *|* fais grande of\-|* * fen-|se, Quant je vou-|lu con-|
w: Il m'en prent|mal, aus- si *|* a- vois- je||tort, De vou- loir|faire a|
[M:4/4] D,2 A,,2 B,,2 B,,2 | C,8 :| F,,2 F,,2 F,,2 F,,2 | (B,,C,D,E, F,3) E, | G,2 G,2 F,2 D,2 | %11
w: tre~a- mour te- nir|fort,||||
w: ung dieu ré- sis-|tan-|ce, Du quel cha-|scun * * * * re-|doub- te la puis-|
 _E,4 D,4 | z2 G,4 (B,2- | B,A,G,F, G,2) G,2 | F,2 D,2 (F,3 E, | D,2) C,2 D,2 D,2 | %16
w: |Tant feist|* * * * * d'ef-|fort qui print *|* d'as- sault mon|
w: san- ce,|||||
 (A,,2 C,3 B,,A,,G,, | F,,2 F,4 E,2) | F,2 F,,2 F,,2 F,,2 | B,,2 B,,2 G,,2 G,,2 | %20
w: cueur, * * * *||* Et meist le|feu de- dans à|
w: ||||
 (C,3 D, E,2) (F,2- | F,E,D,C,) D,4 | C,4 z4 | z2 C,2 F,2 G,2 | A,3 G, F,3 E, | D,2 C,2 F,4 | z8 | %27
w: grand * * oul\-|* * * * tran-|ce,|En lieu con-|quis ain- sy faict|le vain- cueur,||
w: |||||||
 z2 F,,2 B,,2 C,2 | D,3 C, B,,2 A,,2 | B,,2 G,,2 F,,4 | z8 | z2 F,,2 B,,2 C,2 | D,3 C, B,,2 A,,2 | %33
w: En lieu con-|quis am- sy faict|le vain- cueur,||En lieu con-|quis ain- sy faict|
w: ||||||
 (B,,4 F,4) | B,,8 | F,,8 |] %36
w: le *|vain-|cueur.|
w: |||

